svg/material-icons/push_pin/materialiconsround/20px.svg

<svg xmlns="http://www.w3.org/2000/svg" width="20" height="20" viewBox="0 0 20 20"><path d="M15 10.47c0-.26-.19-.46-.44-.52-.89-.2-1.56-1-1.56-1.95V4h.5c.28 0 .5-.22.5-.5s-.22-.5-.5-.5h-7c-.28 0-.5.22-.5.5s.22.5.5.5H7v4c0 .95-.67 1.75-1.56 1.95-.25.06-.44.26-.44.52 0 .29.24.53.53.53H9.5v5.5c0 .28.22.5.5.5s.5-.22.5-.5V11h3.97c.29 0 .53-.24.53-.53z"/></svg>

<svg xmlns="http://www.w3.org/2000/svg" enable-background="new 0 0 20 20" height="20" viewBox="0 0 20 20" width="20"><g><rect fill="none" height="20" width="20"/></g><g><g><path d="M15,10.47c0-0.26-0.19-0.46-0.44-0.52C13.67,9.75,13,8.95,13,8V4h0.5C13.78,4,14,3.78,14,3.5C14,3.22,13.78,3,13.5,3h-7 C6.22,3,6,3.22,6,3.5C6,3.78,6.22,4,6.5,4H7v4c0,0.95-0.67,1.75-1.56,1.95C5.19,10.01,5,10.21,5,10.47v0C5,10.76,5.24,11,5.53,11 H9.5v5.5c0,0.28,0.22,0.5,0.5,0.5h0c0.28,0,0.5-0.22,0.5-0.5V11h3.97C14.76,11,15,10.76,15,10.47L15,10.47z"/></g></g></svg>
